public/assets/icons/instagram.svg

<svg width="20" height="20" viewBox="0 0 20 20" fill="none" xmlns="http://www.w3.org/2000/svg">
<path d="M13.6585 2.26307C14.7231 2.26613 15.7431 2.67471 16.4958 3.39958C17.2486 4.12445 17.6729 5.1067 17.6761 6.13181V13.8685C17.6729 14.8936 17.2486 15.8758 16.4958 16.6007C15.7431 17.3256 14.7231 17.7342 13.6585 17.7372H5.6243C4.55976 17.7342 3.53973 17.3256 2.78698 16.6007C2.03423 15.8758 1.60994 14.8936 1.60676 13.8685V6.13181C1.60994 5.1067 2.03423 4.12445 2.78698 3.39958C3.53973 2.67471 4.55976 2.26613 5.6243 2.26307H13.6585ZM13.6585 0.71582H5.6243C2.53087 0.71582 0 3.15296 0 6.13181V13.8685C0 16.8473 2.53087 19.2845 5.6243 19.2845H13.6585C16.752 19.2845 19.2828 16.8473 19.2828 13.8685V6.13181C19.2828 3.15296 16.752 0.71582 13.6585 0.71582Z" fill="#274C5B"/>
<path d="M14.8637 6.1326C14.6253 6.1326 14.3923 6.06454 14.1941 5.93702C13.9959 5.8095 13.8415 5.62824 13.7502 5.41618C13.659 5.20412 13.6352 4.97078 13.6817 4.74565C13.7282 4.52053 13.8429 4.31374 14.0115 4.15144C14.18 3.98913 14.3948 3.8786 14.6286 3.83382C14.8623 3.78904 15.1047 3.81203 15.3249 3.89986C15.5451 3.9877 15.7333 4.13645 15.8657 4.3273C15.9982 4.51815 16.0688 4.74253 16.0688 4.97206C16.0692 5.12456 16.0382 5.27562 15.9778 5.41657C15.9174 5.55752 15.8286 5.68559 15.7166 5.79342C15.6046 5.90125 15.4716 5.98673 15.3253 6.04493C15.1789 6.10314 15.022 6.13293 14.8637 6.1326ZM9.64139 6.90602C10.277 6.90602 10.8984 7.08754 11.427 7.42761C11.9555 7.76768 12.3674 8.25104 12.6107 8.81656C12.8539 9.38209 12.9176 10.0044 12.7936 10.6047C12.6696 11.2051 12.3635 11.7565 11.914 12.1894C11.4645 12.6222 10.8918 12.917 10.2684 13.0364C9.64495 13.1558 8.99873 13.0945 8.41146 12.8603C7.82419 12.626 7.32224 12.2293 6.96909 11.7204C6.61593 11.2114 6.42744 10.6131 6.42744 10.0009C6.42835 9.18038 6.76725 8.39369 7.36979 7.81347C7.97232 7.23325 8.78927 6.9069 9.64139 6.90602ZM9.64139 5.35877C8.68794 5.35877 7.75591 5.63103 6.96315 6.14112C6.17038 6.65121 5.5525 7.37621 5.18764 8.22446C4.82277 9.0727 4.7273 10.0061 4.91331 10.9066C5.09932 11.8071 5.55845 12.6342 6.23263 13.2834C6.90682 13.9327 7.76579 14.3748 8.70091 14.5539C9.63604 14.733 10.6053 14.6411 11.4862 14.2897C12.3671 13.9384 13.12 13.3434 13.6497 12.58C14.1794 11.8166 14.4621 10.9191 14.4621 10.0009C14.4621 8.76976 13.9542 7.58901 13.0501 6.71843C12.1461 5.84786 10.9199 5.35877 9.64139 5.35877Z" fill="#274C5B"/>
</svg>

<svg xmlns="http://www.w3.org/2000/svg" width="20" height="20" fill="#274c5b" xmlns:v="https://vecta.io/nano"><path d="M13.659 2.263A4.11 4.11 0 0 1 16.496 3.4a3.81 3.81 0 0 1 1.18 2.732v7.737a3.81 3.81 0 0 1-1.18 2.732 4.11 4.11 0 0 1-2.837 1.137H5.624a4.11 4.11 0 0 1-2.837-1.137 3.81 3.81 0 0 1-1.18-2.732V6.132A3.81 3.81 0 0 1 2.787 3.4a4.11 4.11 0 0 1 2.837-1.137h8.034zm0-1.547H5.624C2.531.716 0 3.153 0 6.132v7.737c0 2.979 2.531 5.416 5.624 5.416h8.034c3.093 0 5.624-2.437 5.624-5.416V6.132c0-2.979-2.531-5.416-5.624-5.416zm1.205 5.417a1.24 1.24 0 0 1-.67-.196 1.17 1.17 0 0 1-.444-.521 1.12 1.12 0 0 1-.069-.671 1.14 1.14 0 0 1 .33-.594 1.22 1.22 0 0 1 .617-.318 1.25 1.25 0 0 1 .696.066c.22.088.408.237.541.427a1.13 1.13 0 0 1 .203.645 1.12 1.12 0 0 1-.091.445 1.15 1.15 0 0 1-.261.377 1.22 1.22 0 0 1-.391.252 1.23 1.23 0 0 1-.462.088zm-5.222.773c.636 0 1.257.182 1.786.522s.94.823 1.184 1.389a2.99 2.99 0 0 1 .183 1.788 3.06 3.06 0 0 1-.88 1.585 3.25 3.25 0 0 1-1.646.847 3.33 3.33 0 0 1-1.857-.176 3.19 3.19 0 0 1-1.442-1.14c-.353-.509-.542-1.107-.542-1.719a3.04 3.04 0 0 1 .942-2.187 3.28 3.28 0 0 1 2.272-.907zm0-1.547c-.953 0-1.885.272-2.678.782S5.553 7.376 5.188 8.224a4.48 4.48 0 0 0-.274 2.682 4.59 4.59 0 0 0 1.319 2.377 4.88 4.88 0 0 0 2.468 1.271c.935.179 1.904.087 2.785-.264s1.634-.946 2.163-1.71a4.52 4.52 0 0 0 .812-2.579c0-1.231-.508-2.412-1.412-3.282a4.92 4.92 0 0 0-3.409-1.36z"/></svg>
